!!!ONB: MCCC : ILB0328_01 : Extracted Monophonic Melody
!!!COM: Beethoven, Ludwig van
!!!OPR: Violin Sonata No.7 in C minor
!!!OMV: 1
!!!SCT: Op.30 No.2
!!!ODT: 1801///
**kern
*staff1
*clefF4
*k[b-e-a-]
*E-:
*M4/4
2G[
=3
4G]
16E-
16F
16G
16E-
4C
4r
=4
2r
2c[
=5
4c]
16A-
16B-
16c
16A-
4F
4r
=6
2r
2F[
=7
8F]
8E-
8D
8C
4BB
4BB-
=8
4AA
4AA-
2GG
=9
2GG
2GG[
=10
2GG]
2CC[
=11
2CC]
16CC
16BBB
16CC
16BBB
16CC
16BBB
16CC
16BBB
=12
16CC
16BBB
16CC
16BBB
16CC
16BBB
16CC
16BBB
2CC[
=13
2CC]
16CC
16BBB
16CC
16BBB
16CC
16BBB
16CC
16BBB
=14
16CC
16BBB
16CC
16BBB
16CC
16BBB
16CC
16BBB
2CC[
=15
2CC]
2CC[
=16
4CC]
4EE-
2GG[
=17
2GG]
16r
16CC
16EE-
16GG
4C
=18
16r
16C
16E-
16G
4c
2a-[
=19
8a-]
8a-
8a-
8a-
2g[
=20
8g]
8e-
8a-
8g-
4g
4e-
=21
4f
4f
4e-
4r
=22
2r
8r
8BB
8C
8D
=23
8E-
8C
8AA
8FF#
8GG
8G
8G
8G
=24
8r
8G
8G
8G
4C
4r
=25
4GG
4r
4C
4r
=26
2r
2g
=27
2g
4g
4G[
=28
4G]
4r
4cc
4r
=29
2r
4aa-
4r
=30
1r
=31
1r
=32
1r
=33
1r
=34
1r
=35
1r
=36
1r
=37
1r
=38
4r
8.BB-
16BB-
4E-
8.E-
16E-
=39
4BB-
8.BB-
16BB-
2GG[
=40
8.GG]
16EE-
8.FF
16GG
4AA-
8.AA-
16GG
=41
4FF
8.FF
16EE-
4DD
4FF[
=42
4FF]
8.DD
16EE-
4FF
8.FF
16GG
=43
8.AA-
16BB-
8.C
16D
2E-[
=44
4E-]
8.C
16AA-
4BB-
8.BB-
16BB-
=45
4BB-
8.BB-
16BB-
2E-[
=46
4E-]
8.BB
16BB-
4AA
8.AA
16AA
=47
4AA
8.AA
16AA
16BBB-
16BB-
16BBB-
16BB-
16BBB-
16BB-
16BBB-
16BB-
=48
16BBB-
16BB-
16BBB-
16BB-
16BBB-
16BB-
16BBB-
16BB-
16BBB-
16BB-
16BBB-
16BB-
16BBB-
16BB-
16BBB-
16BB-
=49
16BBB-
16BB-
16BBB-
16BB-
16BBB-
16BB-
16BBB-
16BB-
16BBB-
16BB-
16BBB-
16BB-
16BBB-
16BB-
16BBB-
16BB-
=50
16BBB-
16BB-
16BBB-
16BB-
16BBB-
16BB-
16BBB-
16BB-
16BBB-
16BB-
16BBB-
16BB-
16BBB-
16BB-
16BBB-
16BB-
=51
16BBB-
16BB-
16BBB-
16BB-
16BBB-
16BB-
16BBB-
16BB-
16BBB-
16BB-
16BBB-
16BB-
16BBB-
16BB-
16BBB-
16BB-
=52
16BBB-
16BB-
16BBB-
16BB-
16BBB-
16BB-
16BBB-
16BB-
16BBB-
16BB-
16BBB-
16BB-
16BBB-
16BB-
16BBB-
16BB-
=53
16CC
16BB-
16CC
16BB-
16DD
16BB-
16DD
16BB-
4EE-
4r
=54
8r
16D
16E-
8F
8BB-
4E-
8r
8BB-
=55
4E-
8r
8B-
4e-
4r
=56
8r
16D
16E-
8F
8BB-
8E-
16E
16F
8G
8C
=57
8F
16G
16A-
8B-
8E-
8A-
16D
16E-
8F
8BB-
=58
8E-
16D
16E-
8F
8BB-
8E-
8B-
8e-
8B-
=59
8e-
8B-
8e-
8B-
2G
=60
2GG
2AA-
=61
2AA
12BB-
12E-
12G
12B-
12G
12E-
=62
12BB-
12E-
12G
12B-
12G
12E-
12BB-
12E-
12G
12B-
12G
12E-
=63
12BB-
12E-
12G
12BB-
12D
12A-
8G
16g
16f
16e-
16d
16c
16B-
=64
16A-
16G
16F
16E-
16D
16C
16BB-
16AA-
16GG
16BB-
16E-
16G
16A-
16F
16D
16AA-
=65
16GG
16BB-
16E-
16G
16A-
16F
16D
16AA-
8GG
16g
16f
16e-
16d
16c
16B-
=66
16A-
16G
16F
16E-
16D
16C
16BB-
16AA-
8GG
16E
16F
8G
8C
=67
8F
16G
16A-
8B-
8E-
8A-
16d
16e-
8f
8B-
=68
8e-
16d
16e-
8f
8B-
8e-
8B-
8e-
8B-
=69
8e-
8B-
8e-
8B-
2G
=70
2GG
2AA-[
=71
4AA-]
4r
2FF
=72
2E-
2D[
=73
4D]
4r
4E-
4r
=74
4AA-
4r
4BB-
4r
=75
2r
4BB-
4r
=76
2r
2BB-[
=77
4BB-]
16GG
16AA-
16BB-
16GG
2EE-[
=78
2EE-]
2BB[
=79
4BB]
16AA-
16BB-
16BB
16AA-
2EE-[
=80
2EE-]
2BB-[
=81
4BB-]
16GG-
16AA-
16BB-
16GG-
2EE-[
=82
2EE-]
2GG-[
=83
4GG-]
16EE-
16EE
16GG-
16EE-
2BBB[
=84
2BBB]
2GG[
=85
4GG]
16EE
16FF#
16GG
16EE
2BBB[
=86
2BBB]
2GG-[
=87
4GG-]
16DD
16EE
16GG-
16DD
2BBB[
=88
2BBB]
2DD[
=89
4DD]
16BBB
16CC
16DD
16BBB
2GGG[
=90
2GGG]
2EE-[
=91
4EE-]
16CC
16DD
16EE-
16CC
2GGG[
=92
2GGG]
2DD[
=93
4DD]
16BBB
16CC
16DD
16BBB
4GGG
16BBB
16CC
16DD
16BBB
=94
4GGG
16BBB
16CC
16DD
16BBB
4GGG
16BBB
16CC
16DD
16BBB
=95
4GGG
16CC
16DD
16EE-
16CC
4GGG
16DD
16EE-
16FF
16DD
=96
4GGG
16EE-
16FF
16GG
16EE-
4AA-
8.A-
16A-
=97
4E-
8.E-
16E-
2C[
=98
8.C]
16AA-
8.BB-
16C
4D-
8.D-
16C
=99
4BB-
8.BB-
16AA-
4GG
8.GG
16FF
=100
4EE-
4r
16AAA-
16AA-
16BBB-
16BB-
16CC
16C
16DD-
16D-
=101
16EE-
16E-
16FF
16F
16GG
16G
16EE-
16E-
4AA-
4r
=102
8r
8CC
8CC
8CC
16FFF
16FF
16GGG
16GG
16AAA-
16AA-
16BBB-
16BB-
=103
16CC
16C
16DD
16D
16EE
16E
16CC
16C
4F
4r
=104
8r
16r
16AA-
8.BB-
16C
4D-
8.D-
16D-
=105
4AA-
8.AA-
16AA-
2FF[
=106
4FF]
8.F
16F
4B-
8.B-
16B-
=107
4F
8.F
16F
4D-
4r
=108
4r
8.D-
16D-
8GG-
8BB-
8D-
8F
=109
8G-
8B-
8d-
8F
8E
8G
8B-
8G
=110
8E
8G
8E
8C
8F
8A-
8c
8e
=111
8f
8g
8a-
8c
8B
8d
8f
8d
=112
8B
8d
8B
8G
8C
8E-
8G
8B
=113
8c
8d
8e-
8B
8c
8G-
8G
8D
=114
8E-
8BB
8C
8AA-
16GG
16AA-
16GG
16AA
16GG
16BB-
16GG
16BB
=115
16GG
16C
16GG
16D-
16GG
16D
16GG
16E-
16GG
16E
16GG
16F
16GG
16A-
16GG
16G
=116
16GG
16F
16GG
16E-
16GG
16D
16GG
16C
16GG
16BB
16D
16BB
16GG
16BB
16D
16BB
=117
16GG
16BB
16D
16BB
16GG
16BB
16D
16BB
16GG
16C
16E-
16C
16GG
16C
16E-
16C
=118
16GG
16C
16E-
16C
16GG
16C
16E-
16C
16GG
16BB
16GG
16AA
16GG
16BB-
16GG
16BB
=119
16GG
16C
16GG
16D-
16GG
16D
16GG
16E-
16GG
16E
16GG
16F
16GG
16A-
16GG
16G
=120
16GG
16F
16GG
16E-
16GG
16D
16GG
16C
16GG
16BB
16D
16BB
16GG
16BB
16D
16BB
=121
16GG
16BB
16D
16BB
16GG
16BB
16D
16BB
16GG
16C
16E-
16C
16GG
16C
16E-
16C
=122
16GG
16C
16E-
16C
16GG
16C
16E-
16C
16GG
16BB
16D
16BB
16GG
16BB
16D
16BB
=123
16GG
16C
16E-
16C
16GG
16C
16E-
16C
16GG
16BB
16D
16BB
16GG
16BB
16D
16BB
=124
16GG
16C
16E-
16C
16GG
16C
16E-
16C
16BB
16GG
16AA-
16GG
16AA-
16GG
16AA-
16GG
=125
16AA-
16GG
16AA-
16GG
16AA-
16GG
16AA-
16GG
16AA-
16GG
16AA-
16GG
16FF
16GG
16FF
16GG
=126
16EE-
16GG
16EE-
16GG
16DD
16GG
16DD
16GG
2GG[
=127
4GG]
16E-
16F
16G
16E-
4C
4r
=128
2r
2c[
=129
4c]
16A-
16B-
16c
16A-
4F
4r
=130
2r
2F[
=131
8F]
8E-
8D
8C
4BB
4BB-
=132
4AA
4AA-
2GG
=133
2GG
2GG[
=134
4GG]
4r
2AA-
=135
2AA-
2AA-[
=136
4AA-]
4r
2r
=137
2FF
2GG[
=138
4GG]
4r
2E-
=139
4A-
4A-
2A-
=140
4G
4F
2CC[
=141
2CC]
16CC
16BBB
16CC
16BBB
16CC
16BBB
16CC
16BBB
=142
16CC
16BBB
16CC
16BBB
16CC
16BBB
16CC
16BBB
2CC[
=143
4CC]
4r
16CC
16BBB
16CC
16BBB
16CC
16BBB
16CC
16BBB
=144
16CC
16BBB
16CC
16BBB
16CC
16BBB
16CC
16BBB
2CC[
=145
2CC]
2CC[
=146
4CC]
4EE-
2GG[
=147
2GG]
16r
16CC
16EE-
16GG
4C
=148
16r
16C
16E-
16G
4c
2a-
=149
8r
8a-
8a-
8a-
2g
=150
8r
8e-
8a-
8g-
4g
4e-
=151
4f
4f
4e-
4r
=152
2r
8r
8BB
8C
8D
=153
8E-
8C
8AA
8FF#
8GG
8G
8G
8G
=154
8r
8G
8G
8G
4C
4r
=155
4GG
4r
4C
4r
=156
4r
4g
2g
=157
2g
4g
4g-
=158
4g
4r
4C
4r
=159
4BB-
4r
4B-
4r
=160
2r
4G
4r
=161
2r
4A-
4r
=162
4AA-
4r
4GG
4r
=163
1r
=164
1r
=165
1r
=166
1r
=167
1r
=168
1r
=169
1r
=170
1r
=171
4r
8.GG
16GG
4C
8.C
16C
=172
4GG
8.GG
16GG
2EE[
=173
8.EE]
16CC
8.DD
16EE
4FF
8.FF
16EE
=174
4DD
8.DD
16CC
4BBB
4DD[
=175
4DD]
8.BBB
16CC
4DD
8.DD
16EE
=176
8.FF
16GG
8.AA
16BB
2C[
=177
4C]
8.AA
16FF
4GG
8.GG
16GG
=178
4GG
8.GG
16GG
2C[
=179
4C]
8.AA-
16GG
4GG-
8.GG-
16GG-
=180
4GG-
8.GG-
16GG-
16GGG
16GG
16GGG
16GG
16GGG
16GG
16GGG
16GG
=181
16GGG
16GG
16GGG
16GG
16GGG
16GG
16GGG
16GG
16GGG
16GG
16GGG
16GG
16GGG
16GG
16GGG
16GG
=182
16GGG
16GG
16GGG
16GG
16GGG
16GG
16GGG
16GG
16GGG
16GG
16GGG
16GG
16GGG
16GG
16GGG
16GG
=183
16GGG
16GG
16GGG
16GG
16GGG
16GG
16GGG
16GG
16GGG
16GG
16GGG
16GG
16GGG
16GG
16GGG
16GG
=184
16GGG
16GG
16GGG
16GG
16GGG
16GG
16GGG
16GG
16GGG
16GG
16GGG
16GG
16GGG
16GG
16GGG
16GG
=185
16GGG
16GG
16GGG
16GG
16GGG
16GG
16GGG
16GG
16GGG
16GG
16GGG
16GG
16GGG
16GG
16GGG
16GG
=186
16GGG
16GG
16GGG
16GG
16AAA
16GG
16BBB
16GG
4CC
4r
=187
8r
16BB
16C
8D
8GG
4C
8r
8G
=188
4c
8r
8G
4c
4r
=189
8r
16BB
16C
8D
8GG
8C
16C
16D-
8E-
8AA-
=190
8D-
16E
16F
8G
8C
8F
16d
16e-
8f
8G
=191
8c
16d
16e-
8f
8G
8c
8G
8c
8G
=192
8c
8G
8c
8G
2E-
=193
2E
2F
=194
2FF
12GG
12C
12E-
12G
12E-
12C
=195
12GG
12C
12E-
12G
12E-
12C
12GG
12C
12E-
12G
12E-
12C
=196
12GG
12C
12E-
12GG
12BB
12F
16C
16G
16F#
16G
16F
16E-
16D
16C
=197
16BB
16C
16D
16C
16BB
16AA-
16GG
16FF
16EE-
16GG
16C
16E-
16F
16D
16BB
16FF
=198
16EE-
16GG
16C
16E-
16F
16D
16BB
16FF
16EE-
16G
16F#
16G
16F
16E-
16D
16C
=199
16BB
16C
16D
16C
16BB
16AA-
16GG
16FF
8EE-
16C
16D
8E-
8AA-
=200
8D
16E
16F
8G
8C
8F
16B
16c
8d
8G
=201
8c
16B
16c
8d
8G
8c
8G
8c
8G
=202
8c
8G
8c
8G
2E-
=203
2E
2F[
=204
4F]
4r
2D-
=205
2C
2BB[
=206
4BB]
4r
4C
4r
=207
4FF
4r
4GG
4r
=208
2r
4GG
4r
=209
2r
2GG[
=210
4GG]
16EE
16FF
16GG
16EE
2CC[
=211
2CC]
2AA-[
=212
4AA-]
16FF
16GG
16AA-
16FF
2CC[
=213
2CC]
2GG[
=214
4GG]
16EE
16FF
16GG
16EE
2CC[
=215
2CC]
2AA-[
=216
4AA-]
16FF
16GG
16AA-
16FF
2CC[
=217
2CC]
16CC
16GG
16CC
16GG
16CC
16GG
16CC
16GG
=218
16CC
16GG
16CC
16GG
16CC
16GG
16CC
16GG
16CC
16GG
16CC
16GG
16CC
16GG
16CC
16GG
=219
16CC
16GG
16CC
16GG
16CC
16GG
16CC
16GG
4BB-
4G
=220
2r
4r
16E
16F
16G
16E
=221
4C
4r
4AA-
4A-
=222
2r
4r
16A-
16B-
16c
16A-
=223
4F
16A-
16B-
16c
16A-
4d-
8.d-
16d-
=224
4A-
8.A-
16A-
2F[
=225
8.F]
16D-
8.E-
16F
4G-
8.G-
16F
=226
4E-
8.E-
16D-
2C[
=227
8.C]
16C
8.D-
16E-
4F
8.F
16E-
=228
4D-
8.D-
16C
8.BB-
16D-
8.C
16BB-
=229
8.AA-
16C
8.BB-
16AA-
8.GG
16BB-
8.AA-
16GG
=230
4FF
4GG
2AA-
=231
2AA-
16GG
16AA-
16GG
16BB
16GG
16AA-
16GG
16BB
=232
16GG
16AA-
16GG
16BB
16GG
16AA-
16GG
16BB
16GG
16AA-
16GG
16C
16GG
16AA-
16GG
16C
=233
16GG
16AA-
16GG
16C
16GG
16AA-
16GG
16C
16GG
16AA-
16GG
16D
16GG
16AA-
16GG
16D
=234
16GG
16AA-
16GG
16E
16GG
16AA-
16GG
16E
16GG
16F
16GG
16F
16GG
16F
16GG
16F
=235
16GG
16F
16GG
16F
16GG
16G-
16GG
16G-
16GG
16G
16c
16G
16E-
16G
16C
16E-
=236
16GG
16C
16EE-
16GG
16CC
16GG
16EE-
16CC
16AAA-
16GG
16GGG
16GG
16AAA-
16GG
16GGG
16GG
=237
16AAA-
16GG
16GGG
16GG
16AAA-
16GG
16GGG
16GG
16CC
16C
16BBB
16BB
16CC
16C
16DD
16D
=238
16EE-
16E-
16FF
16F
16GG
16G
16EE-
16E-
16CC
16C
16BBB
16BB
16CC
16C
16DD
16D
=239
16EE-
16E-
16EE
16E
16FF
16F
16GG
16G
16AA-
16A-
16EE
16E
16FF
16F
16GG
16G
=240
16AA-
16A-
16BB-
16B-
16C
16c
16AA-
16A-
16FF
16F
16GG
16G
16AA-
16A-
16GG
16G
=241
16FF
16F
16EE-
16E-
16DD
16D
16CC
16C
16BBB
16BB
16DD
16D
16FF
16F
16GG
16G
=242
16AA-
16A-
16DD
16D
16GG
16G
16FF
16F
16EE-
16E-
16GG
16G
16BB
16B
16C
16c
=243
16E-
16e-
16C
16c
16AA-
16A-
16GG-
16G-
16GG
16G
16C
16c
16E-
16e-
16C
16c
=244
16GG
16G
16BB
16B
16D
16d
16G
16g
8E-
8G
8F#
8G
=245
8F
8E-
8D
8C
8BB
8D
8F
8G
=246
8A-
8D
8G
8F
8E-
8G
8B
8c
=247
8e-
8c
8A-
8G-
8G
8E-
8C
8E-
=248
8G
8F#
8G
8GG
8c
8g
8e-
8c
=249
8G
8c
8G
8E-
8C
8G
8E-
8C
=250
8BB
8D
8GG
8BB
8C
8g
8e-
8c
=251
8G
8c
8G
8E-
8C
8G
8E-
8C
=252
8BB
8D
8GG
8BB
8C
8G
8E-
8C
=253
8BB
8D
8GG
8BB
16CC
16C
16GG
16G
16EE-
16E-
16CC
16C
=254
16BBB
16BB
16DD
16D
16GGG
16GG
16BBB
16BB
4C
4r
=255
4C
4r
4C
4r
==
*-
